!!!!SEGMENT: pl-kk--kk-i-382--077_anonim--offertorium-nro-18.krn
!!!cenid: 18xx:1579
!!!COM: Anonim
!!!COM-rismid: pe30004985
!!!CDT:
!!!CNT:
!!!OTL: Offertorium Nro 18
!!!PDT:
!!!AGN: Sacred
!!!SMS-siglum: PL-Kk
!!!SMS-shelfmark: Kk.I.382
!!!SMS-shelfwork: 063 W
!!!SMS-variant:
!!!SMS-altvar:
!!!NIFC-rismid: 1001142263
!!!URL-scan: http://repozytorium.nifc.pl/skany/pl-kk-nut--i-382
!!!ONB-nifc: UWAGA: Offertoria od skanu 0041 (S/T1), 0113 (T2), 0185 (A/B1), 0262 (B2)
!!!ONB-nifc: UWAGA: obsada: S/T1, A/B1, T2, B2. Skany 0047, 0192-0193, 0119-0120, 0269
!!!key:
**kern	**text	**kern	**text	**kern	**text	**kern	**text
*part4	*part4	*part3	*part3	*part2	*part2	*part1	*part1
*staff4	*staff4	*staff3	*staff3	*staff2	*staff2	*staff1	*staff1
*Ibass	*	*Itenor	*	*Ialto	*	*Itenor	*
*I"Basso II	*	*I"Tenore II	*	*I"Alto vel Basso I	*	*I"Soprano vel Tenore I	*
*I'B 2	*	*I'T 2	*	*I'A vel B 1	*	*I'S vel T 1	*
*clefF4	*	*clefC4	*	*clefC3	*	*clefC1	*
*k[]	*	*k[]	*	*k[]	*	*k[]	*
*F:	*	*F:	*	*F:	*	*F:	*
*M4/4	*	*M4/4	*	*M4/4	*	*M4/4	*
*met(C.)	*	*met(C.)	*	*met(C.)	*	*met(C.)	*
*>[A,B,B]	*	*>[A,B,B]	*	*>[A,B,B]	*	*>[A,B,B]	*
=1	=1	=1	=1	=1	=1	=1	=1
*>A	*	*>A	*	*>A	*	*>A	*
*all\right	*	*all\right	*	*all\right	*	*all\right	*
*	*	*2\right	*	*	*	*2\right	*
!LO:TX:a:t=Nro. 18.\nin C.	!	!LO:TX:a:t=Nro 18.	!	!LO:TX:a:t=Nro. 18.	!	!LO:TX:a:t=Nro 18.	!
2C/	San-	2c\	San-	(4g\	San-	2ee\	San-
.	.	.	.	4g#X\)	.	.	.
2C/	-cta	2c\	-cta	(4a\	-cta	(4ff\	-cta
.	.	.	.	4gn\)	.	4ee\)	.
=2	=2	=2	=2	=2	=2	=2	=2
*	*	*	*	*2\right	*	*	*
2C/	San-	2A\	San-	2f#X\	San-	2dd\	San-
2C/	-cta	2G/	-cta	2fn\	-cta	(4a\	-cta
.	.	.	.	.	.	4b\)	.
=3	=3	=3	=3	=3	=3	=3	=3
(4C/	San-	2G/	San-	(4e\	San-	2cc\	San-
4E/)	.	.	.	4g\)	.	.	.
4D/	-cta	4B\	-cta	4g\	-cta	4dd\	-cta
4C/	Ma-	4c\	Ma-	4g\	Ma-	4ee\	Ma-
=4	=4	=4	=4	=4	=4	=4	=4
2BB/	-ri-	2d\	-ri-	2g\	-ri-	(4gg\	-ri-
.	.	.	.	.	.	4ff\)	.
4C/	-a	4c\	-a	4g\	-a	4ee\	-a
4r	.	4r	.	4r	.	4r	.
=5	=5	=5	=5	=5	=5	=5	=5
2C/	San-	2c\	San-	2g\	San-	2ee-X\	San-
2D/	-cta	2B-X\	-cta	2g\	-cta	2dd\	-cta
=6	=6	=6	=6	=6	=6	=6	=6
*2\right	*	*	*	*	*	*	*
2E-X\	De-	2B-X\	De-	2g\	De-	2cc#X\	De-
(4D\	-i	2B-\	-i	2g\	-i	(4dd\	-i
4C#X\)	.	.	.	.	.	4een\)	.
!LO:LB:g=original	!	!LO:LB:g=original	!	!LO:LB:g=original	!	!LO:LB:g=original	!
=7	=7	=7	=7	=7	=7	=7	=7
2D\	ge-	2A\	ge-	2g\	ge-	2dd\	ge-
2D\	-ni-	2A\	-ni-	2f#X\	-ni-	2dd\	-ni-
=8	=8	=8	=8	=8	=8	=8	=8
2.GG/	-trix	2.Bn\	-trix	2.g\	-trix,	2.dd\	-trix
4r	.	4r	.	4r	.	4r	.
=9	=9	=9	=9	=9	=9	=9	=9
2G\	San-	2d\	San-	2b\	San-	2dd\	San-
2E\	-cta	2c#X\	-cta	2a\	-cta	2ee\	-cta
=10	=10	=10	=10	=10	=10	=10	=10
2D\	vir-	2d\	vir-	2a\	vir-	2ff\	vir-
2D\	-go	2G/	-go	2fn\	-go	(4cc\	-go
.	.	.	.	.	.	4b\)	.
=11	=11	=11	=11	=11	=11	=11	=11
2C/	vir-	2G/	vir-	2e\	vir-	2cc\	vir-
2AA/	-go	2c\	-go	2f#X\	-go	(4dd\	-go
.	.	.	.	.	.	4ee\)	.
=12	=12	=12	=12	=12	=12	=12	=12
4.GG/	vir-	4c\	vir-	4g\	vir-	4.ee\	vir-
.	.	8.A\L	-gi-	(8.f#X\L	-gi-	.	.
8GG/	-gi-	.	.	.	.	8dd\	-gi-
.	.	16B\Jk	.	16g\Jk)	.	.	.
4GG/	-num	4B\	-num,	4g\	-num	4dd\	-num
!	!	!LO:TX:b:t=V&colon;S&colon;	!	!	!	!	!
4r	.	4r	.	4r	.	4r	.
!	!	!LO:PB:g=original	!	!	!	!	!
=13	=13	=13	=13	=13	=13	=13	=13
2E\	o-	2c\	O-	(4cc\	O-	2gg\	O-
.	.	.	.	4g\)	.	.	.
2D\	-ra	(4c\	-ra	(4a\	-ra	2ff\	-ra
.	.	4B\)	.	4g\)	.	.	.
!LO:LB:g=original	!	!	!	!LO:LB:g=original	!	!LO:LB:g=original	!
=14	=14	=14	=14	=14	=14	=14	=14
(4C\	o-	(4c\	o-	2g\	O-	2ee\	o-
4C#X\)	.	4B-X\)	.	.	.	.	.
4D\	-ra	4A\	-ra	4fn\	-ra	(8gg\L	-ra
.	.	.	.	.	.	8ff\J)	.
4F 4FF/	pro	4A\	pro	4a\	pro	(8ff\L	pro
.	.	.	.	.	.	8cc\J)	.
=15	=15	=15	=15	=15	=15	=15	=15
1GG	no-	(2c\	no-	(2g\	no-	(2.ee\	no-
.	.	2Bn\)	.	2f\)	.	.	.
.	.	.	.	.	.	4dd\)	.
=16	=16	=16	=16	=16	=16	=16	=16
2.C/	-bis	1c	-bis	2.e\	-bis	2.cc\	-bis
4r	.	.	.	4r	.	4r	.
=17|!	=17|!	=17|!	=17|!	=17|!	=17|!	=17|!	=17|!
*	*	*	*	*k[b-en]	*	*	*
2F\	O	2A\	O	2f\	O	2cc\	O
2BB-X/	san-	2B-X\	san-	2f\	san-	2dd\	san-
=18	=18	=18	=18	=18	=18	=18	=18
4.F\	-ctis-	4.A/	-ctis-	4.f\	-ctis-	4.cc\	-ctis-
8F\	-si-	8G/	-si-	8f\	-si-	8b-X\	-si-
2F\	-ma	2F/	-ma	(4f\	-ma	(4a\	-ma
.	.	.	.	4g\)	.	4b-\)	.
=19	=19	=19	=19	=19	=19	=19	=19
2F\	O	2f\	o	2a\	O	2cc\	o
2BB-X/	pi-	2f\	pi-	2b-X\	pi-	2dd\	pi-
!LO:LB:g=original	!	!	!	!	!	!LO:LB:g=original	!
=20	=20	=20	=20	=20	=20	=20	=20
4.F\	-is-	4.f\	-is-	4.a\	-is-	4.cc\	is-
8F\	-si-	8f\	-si-	8g\	-si-	8b-X\	-si-
2F\	-ma	2f\	-ma	2f\	-ma	2a\	-ma
!	!	!LO:LB:g=original	!	!LO:LB:g=original	!	!	!
=21	=21	=21	=21	=21	=21	=21	=21
2F\	dul-	2f\	dul-	2a\	dul-	2cc\	dul-
2En\	-cis	2cn\	-cis	2g\	-cis	2cc\	-cis
=22	=22	=22	=22	=22	=22	=22	=22
2D\	vir-	2Bn\	Vir-	2f\	vir-	2dd\	vir-
4C\	-go	4c\	-go	4e\	-go	4ee\	-go
4F\	Ma-	4d\	Ma-	4a\	Ma-	4ff\	Ma-
=23	=23	=23	=23	=23	=23	=23	=23
(2G\	-ri-	(2c\	-ri-	(2g\	-ri-	(2ee\	-ri-
2GG/)	.	2Bn\)	.	2f\)	.	4dd\	.
.	.	.	.	.	.	4ee\)	.
=24	=24	=24	=24	=24	=24	=24	=24
!	!	!	!	!LO:TX:b:t=V&colon;S&colon;	!	!	!
1C	-a	1G	-a.	1e	-a.	1cc	-a.
=25!|:	=25!|:	=25!|:	=25!|:	=25!|:	=25!|:	=25!|:	=25!|:
*>B	*	*>B	*	*>B	*	*>B	*
2C/	Ma-	2c\	Ma-	(4.e\	Ma-	(4.g\	Ma-
!	!	!	!	!LO:N:vis=16	!	!	!
.	.	.	.	8f\)	.	8a\)	.
4C/	-ter	4c\	-ter	4e\	-ter	4g\	-ter
4C/	a-	4c\	a-	4f\	a-	4a\	a-
!	!	!	!	!	!	!LO:LB:g=original	!
=26	=26	=26	=26	=26	=26	=26	=26
2C/	-ma-	2c\	-ma-	(4.g\	-ma-	(4.b-X\	-ma-
.	.	.	.	8a\)	.	8cc\)	.
2C/	-ta	2c\	-ta	2g\	-ta	2b-\	-ta
!LO:LB:g=original	!	!	!	!	!	!	!
=27	=27	=27	=27	=27	=27	=27	=27
2F\	in-	2c\	in-	(4.f\	in-	(4.a\	in
.	.	.	.	8g\)	.	8b-X\)	.
4F\	-te-	4c\	-te-	4f\	-te-	4a\	te-
4F\	-me-	4c\	-me-	4g\	-me-	4b-\	-me-
=28	=28	=28	=28	=28	=28	=28	=28
2F\	-ra-	2c\	-ra-	(4.a\	-ra-	(4.cc\	-ra-
.	.	.	.	8b-X\)	.	8dd\)	.
2F\	-ta	2c\	-ta	2a\	-ta	2cc\	-ta
!	!	!LO:LB:g=original	!	!	!	!	!
=29	=29	=29	=29	=29	=29	=29	=29
2F\	O-	(4d\	O-	2f\	O-	(4ff\	O-
.	.	4c\)	.	.	.	4ee\)	.
2F\	-ra	(4B-X\	-ra	2f\	-ra	(4dd\	-ra
.	.	4A\)	.	.	.	4cc\)	.
=30	=30	=30	=30	=30	=30	=30	=30
2BB-X/	o-	(4d\	O-	2f\	o-	(4ff\	O-
.	.	4B-X\)	.	.	.	4dd\)	.
4BB-/	-ra	4A\	-ra	4f\	-ra	4cc\	-ra
4BB-/	pro	4G\	pro	4g\	pro	4b-X\	pro
=31	=31	=31	=31	=31	=31	=31	=31
1C	no-	(2c\	no-	(2f\	no-	(2a\	no-
.	.	2B-X\)	.	2e\)	.	4g\	.
.	.	.	.	.	.	4a\)	.
=32	=32	=32	=32	=32	=32	=32	=32
1F 1FF	-bis.	1A	-bis.	1c	-bis	1f	-bis.
=:|!	=:|!	=:|!	=:|!	=:|!	=:|!	=:|!	=:|!
*-	*-	*-	*-	*-	*-	*-	*-
!!!system-decoration: [(s1,s2,s3,s4)]
!!!AIN: 1 alto 1 bass 2 tenor
!!!ENC: Marta Lawrence
!!!END: 2021-02-12
!!!ENC: Marcin Jachim
!!!END: 2021-02-01
